X: 5208
T: Ysobel Stewart of Fish Hoek
P: Judith's Strathspey
C: Ian R Muir
S: RSCDS 52-08
R: strathspey
Z: 2019 John Chambers <jc:trillian.mit.edu>
M: 4/4
L: 1/8
K: A
|: E |\
"A"E<A c>e "Bm"d>B "E7"G<E | "A"A2 G>A "D"(3FGA "C#/A"E>C |\
"Bm"B,<B B>c d>F B>A | "E"(3GAB "D#/B7"(3FGA "E7"G<E E/D/C/B,/ |
"A"A,<A c>e "Bm"d>B "E7"G<E | "A"A2 G>A "D"(3FGA "C#/A"E>C |\
"Bm"B,<B B>c d>c (3def | "E"e<E "G#/E7"c>B "A"c<A A>G |
"F#m"F/G/A/B/ c>F f>F c>A | "F#m"F/G/A/B/ c>B A<c "B7"F>A |\
"E"E/F/G/A/ B>E "C#m7"e>E B>A | "F#m"(3GAB "B7"(3AGF "E"G<E "E7"E>F |
"A"E<A c>e "Bm"d>B "E7"G<E | "A"A2 G>A "D"(3FGA "C#/A"E>C |\
"Bm"B,<B B>c d>c (3def | "E"e<E "G#/E7"c>B "A"c<A A :|
